img/svg/show-pass.svg

<svg width="24" height="24" viewBox="0 0 24 24" fill="none" xmlns="http://www.w3.org/2000/svg">
<rect x="16.644" y="5.25537" width="2" height="16.1063" transform="rotate(45 16.644 5.25537)" fill="#6E7480"/>
<path fill-rule="evenodd" clip-rule="evenodd" d="M16.2136 7.17532C14.906 6.67132 13.4853 6.39502 12 6.39502C7.76813 6.39502 4.06012 8.63803 2 12C3.17659 13.9202 4.89069 15.4753 6.93291 16.456L9.05058 14.3384C8.66008 13.7391 8.43317 13.0235 8.43317 12.2548C8.43317 10.1442 10.1442 8.43321 12.2548 8.43321C13.0234 8.43321 13.739 8.66013 14.3383 9.05062L16.2136 7.17532ZM18.1073 8.11013L15.6731 10.5443C15.9312 11.0589 16.0764 11.6399 16.0764 12.2548C16.0764 14.3654 14.3654 16.0764 12.2548 16.0764C11.6399 16.0764 11.0589 15.9312 10.5442 15.6732L8.99985 17.2175C9.95742 17.4704 10.963 17.6051 12 17.6051C16.2319 17.6051 19.9399 15.3621 22 12C21.0292 10.4157 19.6924 9.07984 18.1073 8.11013ZM11.7299 14.4874C11.8985 14.5269 12.0742 14.5478 12.2548 14.5478C13.5211 14.5478 14.5477 13.5212 14.5477 12.2548C14.5477 12.0742 14.5269 11.8985 14.4874 11.73L11.7299 14.4874ZM13.2164 10.1726C12.9239 10.0373 12.5982 9.96185 12.2548 9.96185C10.9884 9.96185 9.96181 10.9884 9.96181 12.2548C9.96181 12.5982 10.0373 12.924 10.1726 13.2164L13.2164 10.1726Z" fill="#6E7480"/>
</svg>

<svg width="24" height="24" fill="none" xmlns="http://www.w3.org/2000/svg"><path fill="#6E7480" d="M16.644 5.255l1.414 1.414L6.67 18.058l-1.414-1.414z"/><path fill-rule="evenodd" clip-rule="evenodd" d="M16.214 7.175A11.691 11.691 0 0012 6.395C7.768 6.395 4.06 8.638 2 12a11.77 11.77 0 004.933 4.456l2.118-2.118a3.822 3.822 0 015.288-5.288l1.875-1.875zm1.893.935l-2.434 2.434a3.822 3.822 0 01-5.129 5.129L9 17.218a11.77 11.77 0 003 .387c4.232 0 7.94-2.243 10-5.605a11.78 11.78 0 00-3.893-3.89zm-6.377 6.377a2.293 2.293 0 002.757-2.757l-2.757 2.757zm1.486-4.314a2.293 2.293 0 00-3.044 3.044l3.044-3.044z" fill="#6E7480"/></svg>
